X:28
T:Bogniebrae.
T: From Logie Collection
C: J. Scott Skinner
R: strathspey
M:C
L:1/8
Z: Jason R. Fruit <jason@starlight-glimmer>
U: N=!tenuto!
K:A
E | ([EC]>NF) (A>NB) {AB}(c>NB) (A>F) | (E>NF) (A>NB) (c>B) B>c | !>!(A,>NA) (A>NB) (c>NB) (A>NF) | (E>NF) (A>NE) C<A, !turn!yA, :| 
f | !>!e>a f<a e<a A/a z/ | c>e{g}a>e f<(BNB>f) | e>a f<a e<a A<a | !>!(C>NE) (A>NB) c<(A!>!A>f) |
!>!e>a f<a e<a A<a | c>e{g}a>e f<(B!>!B<d) | c/e/!>!a B/d/!>!g A/c/!>!f G/B/!>!e | (3FBd (3GBe c<A "^^"[AC] |]

